X:1
T:The Yellow Tinker
M:C
L:1/8
Q:80
C:Arr. by T. Tully
S:Reel
K:HP
dB{g}B{G}B{g}fB{g}B{G}B | \
{g}dB{g}B{G}B{g}fg{a}fe | \
{g}dB{g}B{G}B{g}fB{g}B{G}B |
{gef}ec{g}A{d}c{g}eg{a}fe{g}dB{g}B{G}B{g}fB{g}B{G}B | \
{g}dB{g}B{G}B{g}fg{a}fe | \
d{e}d{c}dc{g}dfaf |
{gef}ec{g}A{d}c{g}eg{a}fe|]  |: \
d{e}d{c}dfad{g}fd | \
{gdedc}d2{g}fa{g}ag{a}ef |
d{e}d{c}dfad{g}fd | \
{gef}ec{g}A{d}c{g}eg{a}fe :|
